UI/Core-UI/SVG/battery-low_outline_24px.svg

<svg xmlns="http://www.w3.org/2000/svg" width="24" height="24" viewBox="0 0 24 24"><rect width="24" height="24" style="fill:none"/><path d="M10,14H8V8H6v8h4Zm8-8v4h2v4H18v4H4V6H18m2-2H2V20H20V16h2V8H20V4Z"/></svg>

<svg width="24" height="24" viewBox="0 0 24 24" fill="none" xmlns="http://www.w3.org/2000/svg">
<path d="M10 14H8V8H6V16H10V14ZM18 6V10H20V14H18V18H4V6H18ZM20 4H2V20H20V16H22V8H20V4Z" fill="#0F1621"/>
</svg>
